images/linkedin.svg

<svg aria-hidden="true" focusable="false" data-prefix="fab" data-icon="linkedin" class="svg-inline--fa fa-linkedin fa-w-14" role="img" xmlns="http://www.w3.org/2000/svg" viewBox="0 0 448 512"><path fill="currentColor" d="M416 32H31.9C14.3 32 0 46.5 0 64.3v383.4C0 465.5 14.3 480 31.9 480H416c17.6 0 32-14.5 32-32.3V64.3c0-17.8-14.4-32.3-32-32.3zM135.4 416H69V202.2h66.5V416zm-33.2-243c-21.3 0-38.5-17.3-38.5-38.5S80.9 96 102.2 96c21.2 0 38.5 17.3 38.5 38.5 0 21.3-17.2 38.5-38.5 38.5zm282.1 243h-66.4V312c0-24.8-.5-56.7-34.5-56.7-34.6 0-39.9 27-39.9 54.9V416h-66.4V202.2h63.7v29.2h.9c8.9-16.8 30.6-34.5 62.9-34.5 67.2 0 79.7 44.3 79.7 101.9V416z"></path></svg>

<?xml version="1.0" standalone="no"?>
<!DOCTYPE svg PUBLIC "-//W3C//DTD SVG 1.0//EN" "http://www.w3.org/TR/2001/REC-SVG-20010904/DTD/svg10.dtd">
<svg xmlns="http://www.w3.org/2000/svg" xmlns:xlink="http://www.w3.org/1999/xlink" id="body_1" width="51" height="38">

<g transform="matrix(0.049804688 0 0 0.049479168 0 0)">
	<g transform="matrix(1.5 0 0 1.5 176.00003 -0)">
	</g>
    <path transform="matrix(1.5 0 0 1.5 176.00003 -0)"  d="M416 32L31.9 32C 14.3 32 0 46.5 0 64.3L0 64.3L0 447.7C 0 465.5 14.3 480 31.9 480L31.9 480L416 480C 433.6 480 448 465.5 448 447.7L448 447.7L448 64.3C 448 46.500004 433.6 32.000004 416 32.000004L416 32.000004L416 32zM135.4 416L69 416L69 202.2L135.5 202.2L135.5 416zM102.2 173C 80.899994 173 63.699997 155.7 63.699997 134.5C 63.699997 113.3 80.9 96 102.2 96C 123.399994 96 140.7 113.3 140.7 134.5C 140.7 155.8 123.5 173 102.2 173zM384.3 416L317.9 416L317.9 312C 317.9 287.2 317.4 255.3 283.4 255.3C 248.79999 255.3 243.5 282.3 243.5 310.2L243.5 310.2L243.5 416L177.1 416L177.1 202.2L240.8 202.2L240.8 231.4L241.7 231.4C 250.59999 214.59999 272.3 196.9 304.6 196.9C 371.8 196.9 384.3 241.2 384.3 298.8L384.3 298.8L384.3 416z" stroke="none" fill="none" />
</g>
</svg>
